src/img/int-2.svg

<svg width="45" height="45" viewBox="0 0 45 45" fill="none" xmlns="http://www.w3.org/2000/svg">
<path d="M43.409 26.5967H43.0622L44.3264 25.3319C44.7792 24.8809 44.7039 24.1867 44.2918 23.7494L44.7835 23.258C45.3862 22.6555 44.4542 21.7228 43.8515 22.3255L43.361 22.8157C42.9293 22.375 42.2278 22.3262 41.7766 22.7755L40.937 23.6154V8.22226C40.937 6.71616 39.7098 5.49097 38.2014 5.49097H22.3714L21.6202 4.16909C22.4511 4.22859 22.608 3.45103 22.5109 2.7864H32.4861C32.7643 3.63753 33.5655 4.25435 34.5086 4.25435C35.6819 4.25435 36.6363 3.30012 36.6363 2.12722C36.6363 0.954316 35.6819 0 34.5086 0C33.5655 0 32.7642 0.616816 32.4861 1.46795H22.5109C22.582 0.984551 22.5367 0.0852539 21.8517 0.0852539H19.0852C18.4094 0.0852539 18.3578 0.973213 18.426 1.46795H8.45097C8.1728 0.616904 7.3715 0 6.42843 0C5.25518 0 4.30078 0.954316 4.30078 2.12713C4.30078 3.29994 5.25527 4.25426 6.42843 4.25426C7.3715 4.25426 8.17271 3.63744 8.45097 2.78631H18.4261C18.3291 3.45094 18.4861 4.22851 19.3169 4.169L18.5657 5.49088H2.73553C1.22716 5.49097 -6.10352e-05 6.71616 -6.10352e-05 8.22226V27.8786C-6.10352e-05 29.3847 1.22716 30.6099 2.73553 30.6099H16.4147L15.9831 34.752H15.1386C13.4387 34.752 12.0557 36.1348 12.0557 37.8347C12.0557 38.1988 12.3509 38.4939 12.7149 38.4939H20.5243V43.4092C20.5243 44.2863 21.238 45.0001 22.1152 45.0001H43.4089C44.2863 45 44.9999 44.2863 44.9999 43.4092V28.1875C44.9999 27.3103 44.2863 26.5967 43.409 26.5967ZM42.5486 23.868L43.2361 24.5579L35.0923 32.7051C34.8631 32.4751 34.6339 32.2452 34.4047 32.0153L42.5486 23.868ZM33.5519 33.0272L34.0786 33.5555C33.815 33.7157 33.482 33.8835 33.1261 33.9783C33.222 33.6219 33.3907 33.2898 33.5519 33.0272ZM38.2015 6.80933C38.983 6.80933 39.6187 7.44319 39.6187 8.22226V23.85H25.4626C25.4626 22.1485 25.4777 21.3657 25.4777 20.1623C25.4777 19.6786 25.2562 19.2458 24.9093 18.9599L27.6807 15.7127C27.8608 15.5017 27.8895 15.2003 27.7523 14.9591L23.1207 6.80933H38.2015ZM16.93 23.85C16.8423 23.8235 16.7778 23.743 16.7778 23.6467V20.1622C16.7778 19.9657 16.9986 19.9006 17.1537 19.9225H23.7835C23.9385 19.9006 24.1593 19.9656 24.1593 20.1622V23.6467C24.1593 23.743 24.0948 23.8235 24.0071 23.85H16.93ZM19.8093 5.97076V12.1297C18.9495 12.4086 18.3259 13.2172 18.3259 14.1691C18.3259 15.3511 19.2871 16.3128 20.4685 16.3128C21.6499 16.3128 22.6111 15.3512 22.6111 14.1691C22.6111 13.2172 21.9875 12.4086 21.1277 12.1297V5.97076L26.3776 15.2085L23.4793 18.6043H17.4577L14.5594 15.2085L19.8093 5.97076ZM20.4685 13.3438C20.923 13.3438 21.2928 13.714 21.2928 14.1691C21.2928 14.6242 20.923 14.9944 20.4685 14.9944C20.014 14.9944 19.6443 14.6242 19.6443 14.1691C19.6443 13.714 20.014 13.3438 20.4685 13.3438ZM34.5086 1.31836C34.9548 1.31836 35.3179 1.68117 35.3179 2.12713C35.3179 2.57309 34.9548 2.9359 34.5086 2.9359C34.0624 2.9359 33.6993 2.57309 33.6993 2.12713C33.6993 1.68117 34.0624 1.31836 34.5086 1.31836ZM19.7445 1.40361H21.1927V2.85073H19.7445V1.40361ZM6.42843 2.93599C5.98213 2.93599 5.61914 2.57317 5.61914 2.12722C5.61914 1.68126 5.98213 1.31836 6.42843 1.31836C6.87466 1.31836 7.23773 1.68117 7.23773 2.12713C7.23773 2.57309 6.87466 2.93599 6.42843 2.93599ZM2.73553 6.80933H17.8163L13.1849 14.959C13.0477 15.2002 13.0764 15.5016 13.2566 15.7126L16.0279 18.9597C15.681 19.2457 15.4595 19.6785 15.4595 20.1622C15.4595 21.3664 15.4746 22.4849 15.4746 23.8499H1.3183V8.22226C1.3183 7.44319 1.9541 6.80933 2.73553 6.80933ZM1.3183 27.8787V25.1684H16.8214C16.8772 25.1745 16.9337 25.1783 16.991 25.1783H23.9461C24.0035 25.1783 24.06 25.1745 24.1157 25.1684H39.3848L37.9571 26.5967H22.1154C21.2383 26.5967 20.5245 27.3103 20.5245 28.1876V29.2917H2.73553C1.9541 29.2917 1.3183 28.6578 1.3183 27.8787ZM17.7403 30.61H20.5245V34.752H17.3087L17.7403 30.61ZM13.502 37.1756C13.7636 36.5283 14.3987 36.0704 15.1387 36.0704H16.5765C16.577 36.0704 16.5776 36.0705 16.5781 36.0705C16.5787 36.0705 16.5794 36.0704 16.58 36.0704H20.5246V37.1756H13.502ZM21.8429 43.4092V28.1875C21.8429 28.0372 21.9651 27.9149 22.1154 27.9149H25.389V43.6816H22.1154C21.9651 43.6816 21.8429 43.5595 21.8429 43.4092ZM43.6816 43.4092C43.6816 43.5595 43.5592 43.6817 43.4089 43.6817H26.7074V27.915H36.6393L33.0072 31.5487C32.284 32.2719 31.7437 33.4792 31.7294 34.4936C31.7241 34.8757 32.2227 35.3738 32.6065 35.3738C33.635 35.3631 34.8291 34.8331 35.5579 34.1042L41.7445 27.9151H43.4091C43.5594 27.9151 43.6818 28.0374 43.6818 28.1877L43.6816 43.4092Z" fill="url(#paint0_linear)"/>
<path d="M23.5619 39.0789C23.1978 39.0789 22.9027 39.374 22.9027 39.7381V41.4538C22.9027 42.3061 24.2211 42.3061 24.2211 41.4538V39.7381C24.2211 39.374 23.9261 39.0789 23.5619 39.0789Z" fill="url(#paint1_linear)"/>
<path d="M23.562 37.792C24.4103 37.792 24.4118 36.4736 23.562 36.4736C22.7137 36.4736 22.7123 37.792 23.562 37.792Z" fill="url(#paint2_linear)"/>
<path d="M23.562 33.8046C22.7137 33.8046 22.7123 35.123 23.562 35.123C24.4102 35.123 24.4116 33.8046 23.562 33.8046Z" fill="url(#paint3_linear)"/>
<path d="M23.5619 29.484C23.1978 29.484 22.9027 29.7791 22.9027 30.1432V31.8589C22.9027 32.7112 24.2211 32.7112 24.2211 31.8589V30.1432C24.2211 29.7791 23.9261 29.484 23.5619 29.484Z" fill="url(#paint4_linear)"/>
<defs>
<linearGradient id="paint0_linear" x1="22.4999" y1="0" x2="22.4999" y2="45.0001" gradientUnits="userSpaceOnUse">
<stop stop-color="#24BAF1"/>
<stop offset="1" stop-color="#7B39F7"/>
</linearGradient>
<linearGradient id="paint1_linear" x1="22.4999" y1="0" x2="22.4999" y2="45.0001" gradientUnits="userSpaceOnUse">
<stop stop-color="#24BAF1"/>
<stop offset="1" stop-color="#7B39F7"/>
</linearGradient>
<linearGradient id="paint2_linear" x1="22.4999" y1="0" x2="22.4999" y2="45.0001" gradientUnits="userSpaceOnUse">
<stop stop-color="#24BAF1"/>
<stop offset="1" stop-color="#7B39F7"/>
</linearGradient>
<linearGradient id="paint3_linear" x1="22.4999" y1="0" x2="22.4999" y2="45.0001" gradientUnits="userSpaceOnUse">
<stop stop-color="#24BAF1"/>
<stop offset="1" stop-color="#7B39F7"/>
</linearGradient>
<linearGradient id="paint4_linear" x1="22.4999" y1="0" x2="22.4999" y2="45.0001" gradientUnits="userSpaceOnUse">
<stop stop-color="#24BAF1"/>
<stop offset="1" stop-color="#7B39F7"/>
</linearGradient>
</defs>
</svg>

<svg width="45" height="45" fill="none" xmlns="http://www.w3.org/2000/svg"><path d="M43.409 26.597h-.347l1.264-1.265c.453-.451.378-1.145-.034-1.583l.491-.491c.603-.602-.329-1.535-.931-.932l-.491.49c-.432-.441-1.133-.49-1.584-.04l-.84.84V8.221a2.737 2.737 0 0 0-2.736-2.731h-15.83l-.75-1.322c.83.06.987-.718.89-1.383h9.975a2.13 2.13 0 0 0 2.023 1.468 2.13 2.13 0 0 0 2.127-2.127A2.13 2.13 0 0 0 34.51 0a2.13 2.13 0 0 0-2.023 1.468h-9.975c.071-.483.026-1.383-.66-1.383h-2.766c-.676 0-.727.888-.659 1.383H8.451A2.131 2.131 0 0 0 6.428 0a2.13 2.13 0 0 0-2.127 2.127 2.13 2.13 0 0 0 2.127 2.127 2.13 2.13 0 0 0 2.023-1.468h9.975c-.097.665.06 1.443.89 1.383l-.75 1.322H2.736A2.737 2.737 0 0 0 0 8.222V27.88a2.737 2.737 0 0 0 2.736 2.73h13.679l-.432 4.143h-.844a3.086 3.086 0 0 0-3.083 3.083c0 .364.295.659.659.659h7.81v4.915c0 .877.713 1.591 1.59 1.591H43.41c.877 0 1.59-.714 1.59-1.59V28.187c0-.878-.713-1.591-1.59-1.591Zm-.86-2.729.687.69-8.144 8.147-.687-.69 8.144-8.147Zm-8.997 9.16.527.528c-.264.16-.597.328-.953.422.096-.356.265-.688.426-.95Zm4.65-26.219c.781 0 1.417.634 1.417 1.413V23.85H25.463c0-1.702.015-2.484.015-3.688 0-.483-.222-.916-.569-1.202l2.772-3.247a.659.659 0 0 0 .071-.754l-4.631-8.15H38.2ZM16.93 23.85a.213.213 0 0 1-.152-.203v-3.485c0-.196.22-.261.376-.24h6.63c.155-.021.375.044.375.24v3.485a.213.213 0 0 1-.152.203H16.93Zm2.88-17.88v6.16a2.147 2.147 0 0 0-1.484 2.04c0 1.181.961 2.143 2.142 2.143a2.146 2.146 0 0 0 2.143-2.144c0-.952-.623-1.76-1.483-2.04V5.972l5.25 9.238-2.899 3.395h-6.021l-2.899-3.395 5.25-9.238Zm.659 7.374a.826.826 0 0 1 0 1.65.826.826 0 0 1 0-1.65Zm14.04-12.026a.81.81 0 0 1 0 1.618.81.81 0 0 1 0-1.618Zm-14.765.086h1.449V2.85h-1.449V1.404ZM6.428 2.936a.81.81 0 1 1 .002-1.62.81.81 0 0 1-.002 1.62ZM2.736 6.809h15.08l-4.631 8.15a.659.659 0 0 0 .072.754l2.77 3.247a1.555 1.555 0 0 0-.568 1.202c0 1.204.016 2.323.016 3.688H1.318V8.222c0-.779.636-1.413 1.418-1.413ZM1.318 27.88v-2.71h15.503c.056.005.113.01.17.01h6.955c.057 0 .114-.005.17-.01h15.269l-1.428 1.428H22.115c-.877 0-1.59.713-1.59 1.59v1.105H2.735a1.417 1.417 0 0 1-1.417-1.413Zm16.422 2.73h2.785v4.142h-3.216l.431-4.142Zm-4.238 6.566a1.767 1.767 0 0 1 1.637-1.106h5.386v1.106h-7.023Zm8.34 6.233V28.188c0-.15.123-.273.273-.273h3.274v15.767h-3.274a.273.273 0 0 1-.272-.273Zm21.84 0c0 .15-.123.273-.273.273H26.707V27.915h9.932l-3.632 3.634c-.723.723-1.263 1.93-1.278 2.945-.005.382.494.88.877.88 1.029-.01 2.223-.54 2.952-1.27l6.187-6.189h1.664c.15 0 .273.122.273.273v15.221Z" fill="url(#a)"/><path d="M23.562 39.079a.66.66 0 0 0-.66.66v1.715c0 .852 1.32.852 1.32 0v-1.716a.66.66 0 0 0-.66-.66Z" fill="url(#b)"/><path d="M23.562 37.792c.848 0 .85-1.318 0-1.318-.848 0-.85 1.318 0 1.318Z" fill="url(#c)"/><path d="M23.562 33.805c-.848 0-.85 1.318 0 1.318.848 0 .85-1.318 0-1.318Z" fill="url(#d)"/><path d="M23.562 29.484a.66.66 0 0 0-.66.66v1.715c0 .852 1.32.852 1.32 0v-1.716a.66.66 0 0 0-.66-.659Z" fill="url(#e)"/><defs><linearGradient id="a" x1="22.5" y1="0" x2="22.5" y2="45" gradientUnits="userSpaceOnUse"><stop stop-color="#24BAF1"/><stop offset="1" stop-color="#7B39F7"/></linearGradient><linearGradient id="b" x1="22.5" y1="0" x2="22.5" y2="45" gradientUnits="userSpaceOnUse"><stop stop-color="#24BAF1"/><stop offset="1" stop-color="#7B39F7"/></linearGradient><linearGradient id="c" x1="22.5" y1="0" x2="22.5" y2="45" gradientUnits="userSpaceOnUse"><stop stop-color="#24BAF1"/><stop offset="1" stop-color="#7B39F7"/></linearGradient><linearGradient id="d" x1="22.5" y1="0" x2="22.5" y2="45" gradientUnits="userSpaceOnUse"><stop stop-color="#24BAF1"/><stop offset="1" stop-color="#7B39F7"/></linearGradient><linearGradient id="e" x1="22.5" y1="0" x2="22.5" y2="45" gradientUnits="userSpaceOnUse"><stop stop-color="#24BAF1"/><stop offset="1" stop-color="#7B39F7"/></linearGradient></defs></svg>
